X:298
T: ES JAGT EIN JAEGER GESCHWINDE
N: E1445
O: Europa, Mitteleuropa, Deutschland
R: Staende -, Jaeger - Lied
M: 6/4
L: 1/8
K: F
C2 | F4G2A2F2c2 | c4B2A4
G2 | A4B2c4B2 | c6-c4
C2 | F4G2A2F2c2 | c4B2A4
G2 | A4B2c4B2 | c6-c4
c2 | B4G2A3GAB | c3Bc2F4
F2 | G4G2E4D2 | C8z2
C2 | F4F2G4G2 | A3GA2F4z2 |
A3Bc2A2F2G2 | F6z4
c2 | c4c2G3AB2 | c4A2G4
A2 | c4B2A2B2G2 | F8z2

@@@ Tune index: 4982
